!!!ONB: MCCC : IJH0464_01 : Extracted Monophonic Melody
!!!COM: Haydn, Joseph
!!!OPR: String Quartet in G major
!!!OMV: 1
!!!SCT: Hob.III:66 ; Op.64 No.4
!!!ODT: 1790///
**kern
*thru
*k[f#]
*G:
*clefF
*M4/4
16B
16d
=1
4.g
8b
4.dd
8gg
=2
4gg
16ff#
16gg
16ee
16ff#
8dd
4r
8cc
=3
4cc
8b
8a
8g
8g
8a
8a
=4
8d
8r
8e
16e
16f#
8d
4r
16B
16d
=5
4.g
8b
4dd[
16dd]
16gg
16bb
16gg
=6
4gg
16ff#
16gg
16ee
16ff#
8dd
4r
8ccc
=7
4ccc
8bb
8ddd
4ddd
8ccc
16bb
16aa
=8
8gg
8gg
8aa
16aa
16bb
8gg
8r
8A
16A
16B
=9
8G
8r
8A
16A
16B
8G
8G
8A
16A
16B
=10
8G
2r
8r
8ddd#
8ddd#
=11
8eee
2r
8r
8ccc#
8ccc#
=12
8ddd
8r
16d
16e
16f#
16d
16e
16f#
16g
16e
16f#
16g
16a
16f#
=13
16g
16a
16b
16g
16f#
16g
16a
16f#
8e
4f
8d
=14
16c#
16e
16a
16cc#
16ee
16cc#
16dd
16b
16cc#
16e
16a
16cc#
16ee
16cc#
16dd
16b
=15
16cc#
16a
16g#
16a
16cc#
16a
16cc#
16ee
16gg
16ff#
16ee
16dd
16cc#
16b
16a
16cc#
=16
4.dd
8ff#
4.aa
8ddd
=17
4ddd
8ccc#
8bb
8aa
8aa#
8bb
8gg
=18
4gg
8ff#
8ee
8dd
8cc#
8dd
8dd#
=19
4ee
8cc#
16b
16a
8dd
8cc#
8dd
8dd#
=20
4ee
8cc#
16b
16a
4ff#
16ee
16dd
16cc#
16dd
=21
4ddd
16ccc#
16bb
16aa
16gg#
16aa
16aa
16ccc#
16aa
16ddd
16aa
16ff#
16dd
=22
16a
16aa
16ccc#
16aa
16ddd
16aa
16ff#
16dd
4a
4r
=23
8r
8aa
8aa
8aa
8ccc
4bb-
8gg#[
=24
8gg#]
4aa
4ff
4ee
8cc#
=25
8r
8dd
8dd
8dd
8ff
4ee-
8cc#[
=26
8cc#]
4dd
4b-
4a
8g#
=27
16g
16A
16c#
16e
16g
16A
16g
16B-
16g
16A
16c#
16e
16g
16A
16g
16B-
=28
16g
16A
16g
16B-
16g
16A
16g
16B-
16g
16A
16c#
16e
16a
16cc#
16ee
16g
=29
16f#
16a
16dd
16ff#
16aa
16gg#
16bb
16gg#
16aa
16a
16dd
16ff#
16aa
16gg#
16bb
16gg#
=30
16aa
16a
16dd
16ff#
16aa
16gg#
16bb
16gg#
16aa
16ff#
16ddd
16ddd
8ddd
8ddd
=31
8ddd
8bb
8bb
8bb
8bb
8gg
8gg
8gg
=32
8ff#
8aa
8cc#
8ee
4dd
8r
8A
=33
8f#
8f#
8d
8d
8.c#
16e
8g
16e
16c#
=34
8.d
16f#
8a
8a
16a
16g
16g
16f#
16f#
16e
16e
16a
=35
16a
16g
16g
16f#
16f#
16e
16e
16a
16a
16g
16g
16f#
16f#
16e
16e
16b
=36
2b
4d
8e
16d
16e
=37
8d
8r
8e
16d
16e
8d
8d
8e
16d
16e
=38
8d
8r
8e
16d
16e
8d
4.r
=39
1r
=40
2..r
8B
=41
8g
8g
8e
8e
8.d#
16f#
8a
16f#
16d#
=42
16e
16g
16b
16ee
16gg
16bb
16gg
16ee
16b
16g
16e
16g
16f#
16b
16a
16b
=43
16e
16g
16b
16ee
16gg
16bb
16gg
16ee
16b
16g
16e
16g
16f#
16b
16a
16b
=44
16e
16ee
16g
16ee
16e
16ee
16g
16ee
16e
16dd
16f
16dd
16e
16dd
16g#
16dd
=45
16A
16c#
16e
16a
16cc#
16ee
16cc#
16a
16e
16c#
16A
16c#
16B
16e
16d
16e
=46
16A
16c#
16e
16a
16cc#
16ee
16cc#
16a
16e
16c#
16A
16c#
16B
16e
16d
16e
=47
16A
16a
16c#
16a
16A
16a
16c#
16a
16A
16g
16B-
16g
16A
16g
16c#
16g
=48
16d
16f#
16a
16dd
16ff#
16aa
16ff#
16dd
16a
16ddd
16aa
16ff#
16ee
16aa
16gg
16ee
=49
16d
16f#
16a
16dd
16ff#
16aa
16ff#
16dd
16a
16ddd
16aa
16ff#
16ee
16aa
16gg
16ee
=50
16dd
16ddd
16ff#
16ddd
16dd
16ddd
16ff#
16ddd
16dd
16ccc
16ff#
16ccc
16dd
16ccc
16ff#
16ccc
=51
16dd#
16bb
16ff#
16bb
16ddd#
16bb
16ff#
16dd#
16b
16dd#
16ff#
16dd#
16a
16dd#
16ff#
16a
=52
16g
16gg
16b
16gg
16g
16gg
16b
16gg
16e
16ee
16g
16ee
16e
16ee
16g
16ee
=53
16c
16e
16c
16e
16B
16e
16B
16e
16A#
16e
16g
16e
16g
16e
16g
16e
=54
8B
8bb
8bb
8bb
8ddd
4ccc
8aa#[
=55
8aa#]
4bb
4gg#
4aa
8ff#[
=56
8ff#]
4gg
4dd#
4ee
8a#[
=57
8a#]
4b
4a
4g
8e
=58
8d#
8B
8B
8B
8B
8b
8b
8b
=59
8dd
8cc
8a
8f#
4c
4r
=60
16c
16d
16c
16d
16c
16d
16c
16d
8c
4r
16B
16d
=61
4.g
8b
4.dd
8gg
=62
4gg
16ff#
16gg
16ee
16ff#
8dd
4r
8cc
=63
4cc
8b
8a
8g
8g
8a
8a
=64
8d
8r
8e
16e
16f#
8d
4r
16B-
16d
=65
4.g
8b-
4.dd
8gg
=66
4gg
8ff
8ee-
8dd
8ff
8bb-
8ddd
=67
4ddd
8ccc
8bb-
8aa
8ccc
8ddd
8eee-
=68
4eee-
8ddd
8ccc
4ccc
8bb-
16aa
16bb-
=69
4aa
2.r
=70
2.r
4gg
=71
4ff#
4ff
4ee
4ee-
=72
4dd
4cc#
16cc
16d
16cc
16e-
16cc
16d
16cc
16e-
=73
16cc
16d
16f#
16a
16cc
16a
16cc
16ff#
16aa
16ff#
16dd
16cc
16a
16f#
16d
16c
=74
16B
16G
16B
16d
16f
16G
16f
16A-
16f
16G
16f
16A-
16f
16G
16f
16A-
=75
16f
16G
16B
16d
16f
16d
16f
16b
16dd
16b
16ff
16dd
16b
16g
16f
16d
=76
16e
16c
16e
16g
16cc
16ee
16gg
16ee
16dd
16b
16bb
16aa
16gg
16ff#
16ee
16dd
=77
16cc
16a
16ccc
16aa
16ff#
16dd
16cc
16a
16f#
16d
16c
16d
16c
16d
16c
16d
=78
8B
4ddd
8ccc
8bb
4ddd
8ccc
=79
4bb
4ggg
8r
16ddd#
16eee
16ddd#
16eee
16ccc
16aa
=80
4gg
4aa
8gg
4dd
8cc
=81
8b
4dd
8cc
4b
4gg
=82
16r
16e
16a
16cc
16ee
16cc
16b
16a
16b
16dd
16gg
16bb
8ddd
8ff#
=83
2.gg
8r
16cc
16ff#
=84
8aa
4r
16ff#
16aa
8ccc
4r
16B
16d
=85
4.g
8b
4.dd
8gg
=86
4gg
16ff#
16gg
16ee
16ff#
4dd
4dd#
=87
2ee
8r
4eee
16ddd
16ccc
=88
8bb
4ddd
16ccc
16bb
8aa
4aa
16bb
16gg
=89
8ff#
4r
4ff
16ee
16dd
8cc
8ee[
=90
8ee]
16dd
16cc
8b
4dd
16cc
16b
8a
8cc[
=91
8cc]
16b
16a
8g
4b
16a
16b
8a
8g
=92
16f#
16d
16f#
16a
16cc
16a
16cc
16ff#
16aa
16ff#
16ccc
16aa
16ff#
16dd
16cc
16a
=93
16b
16bb
16ff#
16gg
16dd#
16ee
16cc
16a
8g
4r
8d
=94
8b
8b
8g
8g
8.f#
16a
8cc
16a
16f#
=95
8.g
16b
8dd
8dd
16dd
16cc
16cc
16b
16b
16a
16a
16dd
=96
16dd
16cc
16cc
16b
16b
16a
16a
16dd
16dd
16cc
16cc
16b
16b
16a
16a
16ee
=97
2ee
4g
8a
16g
16a
=98
8g
8r
8A
16G
16A
8G
8G
8A
16G
16A
=99
8G
8r
8A
16G
16A
8G
4.r
==
*-
